X: 043	% 7
T: Soldier's Joy No1
T: or Kings Head
S: Viola Ruth "Pioneer Western Folk Tunes" 1948 p.4 #3
R: reel
Z: 2019 John Chambers <jc:trillian.mit.edu>
M: 2/4
L: 1/16
K: D
V: 1 name=7
(FG) |\
AFDF AFDF | A2d2 d2(cB) |\
AFDF AFDF | G2E2 E2(FG) |\
AFDF AFDF | A2d2 d2(de) |
fafd egec | d2d2 d2 :: (de) |\
fdfd fagf | ecAc efge |\
fdfd fagf | edcB A2(de) |
fdfd fagf | ecAc efge |\
fafd egec |[" " d4 d2 "^Final Ending":|\
d2f2 d'4- | d'4 z4 |]
